X: 63
T:Bre Devojce-Pod Ona
O:Serbia
F: http://www.youtube.com/watch?v=nEv_sdpaTvs
L:1/8
M:4/4
K:Dm
Q:1/4=108
P:A
|: "C"c>=B cd c_BAG                       | G2 FE "Gm"D4           :|\
|: "C"GF EC "Dm"DE FA                     | "C"GFEC "Gm"D2 D2      :|
P:B
|: "C"c>B c>A A2 G2                       | "F"c2 A2 "C"G4         :|
|: "Gm"G/A/B/c/ B/A/G/F/ G/A/B/c/ B/A/G/F/| G/A/B/c/ B/A/G/F/ G4   :|



